!!!!SEGMENT: pl-wtm--iii-41-976--001-006_kurpinski-karol-kazimierz--wesele-w-ojcowie-mazur.krn
!!!cenid: 18xx:4258
!!!COM: Kurpiński, Karol Kazimierz
!!!COM-rismID: pe30018952
!!!CDT: 1785/03/06-1857/09/18
!!!CNT: Polish
!!!GTL: Wesele w Ojcowie
!!!OTL: Mazur
!!!OMV: 006
!!!PDT:
!!!AGN:
!!!SMS-siglum: PL-Wtm
!!!SMS-shelfmark: III.41.976
!!!SMS-shelfwork: 001-006 G
!!!SMS-variant:
!!!SMS-altvar:
!!!NIFC-rismSourceID: 1001130735
!!!NIFC-rismChildID: 1001130735
!!!NIFC-islandoraID: pl-wtm:23143
!!!URL-pdf-islandora: https://repozytorium.nifc.pl/islandora/object/pl-wtm:23143/datastream/PDF/view
!!!URL-scan: https://polish.musicsources.pl/pl/lokalizacje/galeria/druki-muzyczne/17811/6 @EN{Scan on Polish Music Sources Website} @PL{Skany w portalu Dziedzictwo Muzyki Polskiej w otwartym dostępie}
!!!IIIF:
!!!ONB-nifc: UWAGA: skany 6-7 (razem z Coda)
!!!AIN: 2 piano
!!!key: B-
**kern	**kern	**fing	**dynam
*part2	*part1	*part1	*part1
*staff2	*staff1	*	*
*I"Piano	*I"Piano	*	*
*I'pf	*I'pf	*	*
*ICklav	*ICklav	*	*
*Ipiano	*Ipiano	*	*
*clefF4	*clefG2	*	*
*k[b-e-]	*k[b-e-]	*	*
*B-:	*B-:	*	*
*M3/8	*M3/8	*	*
=1	=1	=1	=1
8BBB-'/ 8BB-	8B-'/ 8d 8b-	.	f
4BBB-^/ 4BB-	4B-^/ 4d 4b-	.	.
=2	=2	=2	=2
8BBB-'/ 8BB-	8B-'/ 8d 8b-	.	.
4BBB-^/ 4BB-	4B-^/ 4d 4b-	.	.
=3	=3	=3	=3
8BBB-'/L 8BB-	8B-'/L 8d 8b-	.	<
8BBB-'/ 8BB-	8B-'/ 8d 8b-	.	.
8BBB-'/J 8BB-	8B-'/J 8d 8b-	.	.
=4	=4	=4	=4
8BBB-'/L 8BB-	8B-'/L 8d 8b-	.	.
8BBB-'/ 8BB-	8B-'/ 8d 8b-	.	.
8BBB-'/J 8BB-	8B-'/J 8d 8b-	.	[[
!!LO:LB:g=original	!	!
=5||	=5||	=5||	=5||
.	8qgg/	.	p
8BBB-\L 8BB-	(16.dd\LL 16.ff	.	.
.	32een\JJk)	.	.
8F\ 8B- 8d	8dd'\L 8ff	.	.
8F\J 8B- 8d	8dd^^\J 8bb-	.	.
=6	=6	=6	=6
.	8qgg/	.	.
8BB-\L	16.dd\LL 16.ff	.	.
.	32een\JJk	.	.
8F\ 8B- 8d	8dd'\L 8ff	.	.
8F\J 8B- 8d	8dd^^\J 8bb-	.	.
=7	=7	=7	=7
8FF\L	(16ff\LL	.	.
.	16ee-\	.	.
8F\ 8A 8e-	16dd\	.	.
.	16ee-\	.	.
8F\J 8A 8e-	16ff\	.	.
.	16gg\JJ)	.	.
=8	=8	=8	=8
8BB-\L	(32gg\LLL	.	.
.	32ff\	.	.
.	32een\	.	.
.	32ff\JJJ)	.	.
8F\ 8B- 8d	8ddd^\L	.	.
8F\J 8B- 8d	(16bb-\L	.	.
.	16dd\JJ)	.	.
=9	=9	=9	=9
8FF\L	(16ee-\LL	.	.
.	16dd\	.	.
8F\ 8A 8e-	16cc\	.	.
.	16gg\	.	.
8F\J 8A 8e-	16ff\	.	.
.	16a\JJ)	.	.
!!LO:LB:g=original	!	!
=10	=10	=10	=10
8BB-\L	(16b-\LL	.	.
.	16dd\	.	.
8F\ 8B- 8d	16ff\	.	.
.	16bb-\	.	.
8F\J 8B- 8d	16dd\	.	.
.	16dd\JJ)	.	.
=11	=11	=11	=11
8FF\L	(16ee-\LL	.	.
.	16dd\	.	.
8F\ 8A 8e-	16cc\	.	.
.	16gg\	.	.
8F\J 8c 8e-	16ff\	.	.
.	16a\JJ)	.	.
=12	=12	=12	=12
8B-\ 8d	8b-\	.	.
4BB-\ 4B-	4b-\ 4dd 4bb-	.	.
*kcancel	*kcancel	*	*
=13:|!|:	=13:|!|:	=13:|!|:	=13:|!|:
*k[f#c#]	*k[f#c#]	*	*
4DD'/ 4D	4A'/ 4d 4f# 4a	.	f
8DD^/ 8D	8A^/ 8d 8f# 8a	.	.
=14	=14	=14	=14
4DD'/ 4D	4A'/ 4d 4f# 4a	.	.
8DD^/ 8D	8A^/ 8d 8f# 8a	.	.
!!LO:LB:g=original	!	!
=15	=15	=15	=15
8DD'/L 8D	8A'/L 8d 8f# 8a	.	.
8DD'/ 8D	8A'/ 8d 8f# 8a	.	.
8DD'/J 8D	8A'/J 8d 8f# 8a	.	.
=16	=16	=16	=16
8DD'/L 8D	8A'/L 8d 8f# 8a	.	.
8DD'/ 8D	8A'/ 8d 8f# 8a	.	.
8DD'/J 8D	8A'/J 8d 8f# 8a	.	.
=17	=17	=17	=17
8AAA\L 8AA	8a^\L	.	p
8A\ 8c# 8g	(16b\L	.	.
.	16cc#\	.	.
8A\J 8c# 8g	16dd\	.	.
.	16ee\JJ)	.	.
=18	=18	=18	=18
8DD\L 8D	(16ff#\LL	.	.
.	16ee\	.	.
8A\ 8d 8f#	16gg\	.	.
.	16ff#\	.	.
8A\J 8d 8f#	16ee\	.	.
.	16dd\JJ)	.	.
=19	=19	=19	=19
8C#\L	16.aa\LL	.	.
.	32aa\JJk	.	.
8G\ 8A 8c#	8.gg^\L	.	.
8G\J 8A 8c#	.	.	.
.	16ee\Jk	.	.
!!LO:LB:g=original	!	!
=20	=20	=20	=20
8D\L	16.ff#\LL	.	.
.	32ff#\JJk	.	.
8F#\ 8A 8d	8dd^\L	.	.
8F#\J 8A 8d	(16cc#\L	.	.
.	16b\JJ)	.	.
=21	=21	=21	=21
8AAA\L 8AA	8a^\L	.	.
8A\ 8c# 8g	(16b\L	.	.
.	16cc#\	.	.
8A\J 8c# 8g	16dd\	.	.
.	16ee\JJ)	.	.
=22	=22	=22	=22
8FF#\L 8F#	(16ff#\LL	.	.
.	16ee\	.	.
8A\ 8d 8f#	16gg\	.	.
.	16ff#\	.	.
8A\J 8d 8f#	16ee\	.	.
.	16dd\JJ)	.	.
=23	=23	=23	=23
8C#\L	16.aa\LL	.	.
.	32aa\JJk	.	.
8G\ 8A 8e	8gg^\L	.	.
8G\J 8A 8e	(16ee\L	.	.
.	16cc#\JJ)	.	.
=24	=24	=24	=24
8F#\ 8A 8d	8f#\ 8dd	.	.
4D\ 4d	4dd\ 4ff# 4ddd	.	.
!!LO:PB:g=original	!	!
*kcancel	*kcancel	*	*
=25||	=25||	=25||	=25||
*k[b-e-]	*k[b-e-]	*	*
8D\L	16dd\LL	.	p
.	16ff#X\JJ	.	.
8A\ 8c 8d	8ff#m\L	.	.
8A\J 8c 8d	16een\L	.	.
.	16dd\JJ	.	.
=26	=26	=26	=26
8D\L	16gg\LL	.	.
.	16bb-\JJ	.	.
8G\ 8B- 8d	8bb-M\L	.	.
8G\J 8B- 8d	16aa\L	.	.
.	16gg\JJ	.	.
=27	=27	=27	=27
8D\L	16dd\LL	.	.
.	16ff#X\JJ	.	.
8A\ 8c 8d	8ff#m\L	.	.
8A\J 8c 8d	16een\L	.	.
.	16dd\JJ	.	.
=28	=28	=28	=28
8D\L	16gg\LL	.	.
.	16bb-\JJ	.	.
8G\ 8B- 8d	8bb-M\L	.	.
8G\J 8B- 8d	16aa\L	.	.
.	16gg\JJ	.	.
=29	=29	=29	=29
8BB-\L	16dd\LL	.	.
.	16gg\JJ	.	.
8G\ 8B- 8d	8bb-\L	.	.
8G\J 8B- 8en	16aa\L	.	.
.	16gg\JJ	.	.
!!LO:LB:g=original	!	!
=30	=30	=30	=30
8C\L	16ff\LL	.	<
.	16aa\JJ	.	.
8A\ 8c 8f	8aa\L	.	.
8A\J 8c 8f	16gg\L	.	.
.	16ff\JJ	.	.
=31	=31	=31	=31
8C\L	(16een\LL	.	.
.	16dd\	.	.
8B-\ 8c 8en	16ee\	.	.
.	16cc\	.	.
8G\J 8B- 8c	16dd\	.	.
.	16ee\JJ)	.	.
=32	=32	=32	=32
8FF/	(16gg\LL	.	.
.	16ff\JJ)	.	.
4F\ 4A 4c	4a\ 4ff	.	.
=33:|!|:	=33:|!|:	=33:|!|:	=33:|!|:
8FF\L	(16f\LL	.	f
.	16a\	.	.
8F\ 8A 8e-	16cc\	.	.
.	16ee-\	.	.
8F\J 8A 8e-	16gg\	.	.
.	16ff\JJ)	.	.
=34	=34	=34	=34
8BB-\L	(16een\LL	.	.
.	16ff\	.	.
8F\ 8B- 8d	16bb-\	.	.
.	16dd\	.	.
8F\J 8B- 8d	16gg\	.	.
.	16ff\JJ)	.	.
!!LO:LB:g=original	!	!
=35	=35	=35	=35
8FF\L	16ff\LL	.	.
.	16ff\JJ	.	.
8F\ 8A 8e-	8ee-^\L	.	.
8F\J 8c 8e-	16cc\L	.	.
.	16a\JJ	.	.
=36	=36	=36	=36
8BB-\L	16b-\LL	.	.
.	16dd\JJ	.	.
8F\ 8B- 8d	4f^\ 4ff	.	.
8F\J 8B- 8d	.	.	.
=37	=37	=37	=37
8FF\L	(16f\LL	.	.
.	16a\	.	.
8F\ 8A 8e-	16cc\	.	.
.	16ee-\	.	.
8F\J 8A 8e-	16gg\	.	.
.	16ff\JJ)	.	.
=38	=38	=38	=38
8BB-\L	(16een\LL	.	.
.	16ff\	.	.
8F\ 8B- 8d	16bb-\	.	.
.	16dd\	.	.
8F\J 8B- 8d	16gg\	.	.
.	16ff\JJ)	.	.
=39	=39	=39	=39
8FF\L	16ff\LL	.	.
.	16ff\JJ	.	.
8F\ 8A 8e-	8ee-^\L	.	.
8F\J 8c 8e-	(16cc\L	.	.
.	16a\JJ)	.	.
=40	=40	=40	=40
8B-\ 8d	8b-/	.	.
4BB-\ 4B-	4d/ 4f 4b-	.	.
!!LO:LB:g=original	!	!
=41:|!	=41:|!	=41:|!	=41:|!
!	!LO:TX:i:b:t=cantando	!	!
8GG\L	16.gg\LL	.	p
.	32aa\JK	.	.
8B-\ 8d 8g	8.bb-\	.	.
8B-\J 8d 8g	.	.	.
.	16aa\Jk	.	.
=42	=42	=42	=42
8G\L	16.gg\LL	.	.
.	32aa\JJk	.	.
.	(<8qccc/	.	.
8B-\ 8d 8g	(16bb-\LL)	.	.
.	16aa\	.	.
8B-\J 8d 8g	16bb-\	.	.
.	16gg\JJ)	.	.
=43	=43	=43	=43
8D\L	16.aa\LL	.	.
.	32ff#X\JJk	.	.
8c\ 8d 8f#X	8dd\L	.	.
8c\J 8d 8f#	16een\L	.	.
.	16ff#\JJ	.	.
=44	=44	=44	=44
8G\L	(16.gg\LL	.	.
.	32bb-\JJk	.	.
8B-\ 8d 8g	4dd^\) 4ddd	.	.
8B-\J 8d 8g	.	.	.
=45	=45	=45	=45
8GG\L	16.gg\LL	.	.
.	32aa\JJk	.	.
8B-\ 8d 8g	8.bb-\L	.	.
8B-\J 8d 8g	.	.	.
.	16aa\Jk	.	.
!!LO:LB:g=original	!	!
=46	=46	=46	=46
8G\L	(16gg\LL	.	.
.	16aa\	.	.
8B-\ 8d 8g	16bb-\	.	.
.	16aa\	.	.
8B-\J 8d 8g	16bb-\	.	.
.	16gg\JJ)	.	.
=47	=47	=47	=47
8D\L	(16aa\LL	.	.
.	16ff#X\JJ)	.	.
8A\ 8c 8d	8dd\L	.	.
8A\J 8c 8d	(16een\L	.	.
.	16ff#\JJ)	.	.
=48	=48	=48	=48
*^	*	*	*
8r	4.G\	(16aa\LL	.	.
.	.	16gg\JJ)	.	.
4B-/ 4d	.	4gg\	.	.
*v	*v	*	*	*
=49||	=49||	=49||	=49||
*	*	*	*
!	!LO:TUP:a:problem:klamra łukowa	!	!
8FF\L 8F	24a\LL 24ee-X	.	f
.	24ff\	.	.
.	24ee-\JJ	.	.
8F\ 8A 8e-	8cc^\L	.	.
8F\J 8A 8e-	(16a\L	.	.
.	16f\JJ)	.	.
=50	=50	=50	=50
8BB-\L	16b-\LL	.	.
.	16dd\	.	.
8F\ 8B- 8d	16ff\	.	.
.	16een\	.	.
8F\J 8B- 8d	16gg\	.	.
.	16ff\JJ	.	.
!!LO:LB:g=original	!	!
=51	=51	=51	=51
!	!LO:TUP:a:problem:klamra łukowa	!	!
8FF\L	24a\LL 24ee-	.	.
.	24ff\	.	.
.	24ee-\JJ	.	.
8F\ 8A 8e-	8cc^\L	.	.
8F\J 8A 8e-	(16a\L	.	.
.	16f'\JJ)	.	.
=52	=52	=52	=52
8BB-\L	8ff\L	.	.
8F\ 8B- 8d	16b-\L 16bb-	.	.
.	16dd\	.	.
8F\J 8B- 8d	16gg\	.	.
.	16ff\JJ	.	.
=53	=53	=53	=53
!	!LO:TUP:a:problem:klamra łukowa	!	!
8FF\L	24a\LL 24ee-	.	.
.	24ff\	.	.
.	24ee-\JJ	.	.
8F\ 8A 8e-	8cc^\L	.	.
8F\J 8A 8e-	(16a\L	.	.
.	16f'\JJ)	.	.
=54	=54	=54	=54
8BB-\L	16b-\LL	.	.
.	16dd\	.	.
8F\ 8B- 8d	16ff\	.	.
.	16een\	.	.
8F\J 8B- 8d	16gg\	.	.
.	16ff\JJ	.	.
=55	=55	=55	=55
8FF\L	(16ff\LL	.	.
.	16gg\	.	.
8F\ 8A 8e-	16aa\	.	.
.	16bb-\	.	.
8F\J 8c 8e-	16ee-\ 16ccc	.	.
.	16aa\JJ)	.	.
=56	=56	=56	=56
8B-\ 8d	8dd\ 8bb-	.	.
4BB-\ 4B-	4dd\ 4bb-	.	.
!!LO:PB:g=original	!	!
=57:|!	=57:|!	=57:|!	=57:|!
!	!LO:TX:a:B:t=CODA	!	!
*	*	*below	*
16BBB-/LL	16B-'/LL	2	p
16BB-/	16A'/	.	.
16BBB-/	16B-'/	.	.
16BB-/	16c'/	3	.
16BBB-/	16d'/	.	.
16BB-/JJ	16c'/JJ	.	.
=58	=58	=58	=58
16BBB-/LL	16B-'/LL	2	.
16BB-/	16A'/	.	.
16BBB-/	16B-'/	.	.
16BB-/	16c'/	.	.
16BBB-/	16d'/	4	.
16BB-/JJ	16B-'/JJ	2	.
=59	=59	=59	=59
16BBB-/LL	16B-'/LL 16d	4 2	.
16BB-/	16A'/ 16c	3 1	.
16BBB-/	16B-'/ 16d	4 2	.
16BB-/	16c'/ 16e-	3 1	.
16BBB-/	16d'/ 16f	4 2	.
16BB-/JJ	16c'/JJ 16e-	3 1	.
=60	=60	=60	=60
16BBB-/LL	16B-'/LL 16d	4 2	.
16BB-/	16A'/ 16c	.	.
16BBB-/	16B-'/ 16d	.	.
16BB-/	16c'/ 16e-	.	.
16BBB-/	16d'/ 16f	.	.
16BB-/JJ	16B-'/JJ 16d	2 1	.
!!LO:LB:g=original	!	!	!
=61	=61	=61	=61
!	!	!	!
*	*	*above	*
16BBB-/LL	16d'\LL 16b-	2 5	.
16BB-/	16c'\ 16a	1 5	.
16BBB-/	16d'\ 16b-	1 4	.
16BB-/	16e-'\ 16cc	2 5	.
16BBB-/	16f'\ 16dd	1 5	.
16BB-/JJ	16e-'\JJ 16cc	2 5	.
=62	=62	=62	=62
16BBB-/LL	16d'\LL 16b-	1 4	.
16BB-/	16c'\ 16a	1 5	.
16BBB-/	16d'\ 16b-	1 4	.
16BB-/	16e-'\ 16cc	2 5	.
16BBB-/	16f'\ 16dd	1 5	.
16BB-/JJ	16d'\JJ 16b-	1 3	.
=63	=63	=63	=63
16BBB-/LL	16b-'\LL 16dd	3 5	.
16BB-/	16a'\ 16cc	1 3	.
16BBB-/	16b-'\ 16dd	2 4	.
16BB-/	16cc'\ 16ee-	1 3	.
16BBB-/	16dd'\ 16ff	2 4	.
16BB-/JJ	16cc'\JJ 16ee-	1 3	.
=64	=64	=64	=64
16BBB-/LL	16b-'\LL 16dd	2 4	.
16BB-/	16a'\ 16cc	1 3	.
16BBB-/	16b-'\ 16dd	2 4	.
16BB-/	16cc'\ 16ee-	1 3	.
16BBB-/	16dd'\ 16ff	2 4	.
16BB-/JJ	16b-'\JJ 16dd	1 2	.
=65	=65	=65	=65
!	!LO:TX:b:t=cres_cen_do:dur=48s:ext=ud:problem:text with extention lines 	!	!
16BBB-/LL	16dd'\LL 16bb-	2 5	<
16BB-/	16cc'\ 16aa	1 5	.
16BBB-/	16dd'\ 16bb-	2 5	.
16BB-/	16ee-'\ 16ccc	1 4	.
16BBB-/	(16ff\ 16ddd	2 5	.
16BB-/JJ	16dd\JJ) 16bb-	1 4	.
!!LO:LB:g=original	!	!	!
=66	=66	=66	=66
16EE-/LL	16ee-'\LL 16ccc	2 5	.
16E-/	16dd'\ 16bbn	1 5	.
16EE-/	16ee-'\ 16ccc	2 5	.
16E-/	16ff'\ 16ddd	1 4	.
16EE-/	(16gg\ 16eee-	2 5	.
16E-/JJ	16ee-\JJ) 16ccc	1 4	.
=67	=67	=67	=67
16FF/LL	16dd'\LL 16bb-	2 5	.
16F/	16cc'\ 16aa	1 5	.
16FF/	16dd'\ 16bb-	2 5	.
16F/	16ee-'\ 16ccc	1 4	.
16FF/	(16ff\ 16ddd	2 5	.
16F/JJ	16dd\JJ) 16bb-	1 4	.
=68	=68	=68	=68
16FF/LL	16cc'\LL 16aa	2 5	.
16F/	16b-'\ 16gg	1 4	.
16FF/	16cc'\ 16aa	2 5	.
16F/	16dd'\ 16bb-	1 4	.
16FF/	(16ee-\ 16ccc	2 5	.
16F/JJ	16cc\JJ) 16aa	1 4	.
=69	=69	=69	=69
16BBB-/LL	16dd'\LL 16bb-	2 5	.
16BB-/	16cc'\ 16aa	1 5	.
16BBB-/	16dd'\ 16bb-	2 5	.
16BB-/	16ee-'\ 16ccc	1 4	.
16BBB-/	(16ff\ 16ddd	.	.
16BB-/JJ	16dd\JJ) 16bb-	.	.
!!LO:LB:g=original	!	!	!
=70	=70	=70	=70
16EE-/LL	16ee-'\LL 16ccc	2 5	.
16E-/	16dd'\ 16bbn	.	.
16EE-/	16ee-'\ 16ccc	.	.
16E-/	16ff'\ 16ddd	1 4	.
16EE-/	(16gg\ 16eee-	.	.
16E-/JJ	16ee-\JJ) 16ccc	.	.
=71	=71	=71	=71
16FF/LL	16dd'\LL 16bb-	2 5	.
16F/	16cc'\ 16aa	.	.
16FF/	16dd'\ 16bb-	.	.
16F/	16ee-'\ 16ccc	1 4	.
16FF/	(16ff'\ 16ddd	.	.
16F/JJ	16dd'\JJ) 16bb-	.	.
=72	=72	=72	=72
16FF/LL	16cc'\LL 16aa	2 5	.
16F/	16b-'\ 16gg	.	.
16FF/	16cc'\ 16aa	.	.
16F/	16dd'\ 16bb-	1 4	.
16FF/	(16ee-\ 16ccc	.	.
16F/JJ	16cc\JJ) 16aa	.	[[
=73	=73	=73	=73
*	*^	*	*
16BBB-/LL 16BB-	(8.dd^\L 8.bb-	4ryy	1 3	.
32r	.	.	.	.
(32D/JJk	.	.	.	.
8F/L)	.	.	.	.
.	16ff\Jk 16ddd	.	2 5	.
8FF/J	16ccc/LL	8ee-\	.	.
.	16aa/JJ)	.	.	.
!!LO:LB:g=original	!	!	!	!
=74	=74	=74	=74	=74
16BBB-/LL 16BB-	(8.dd^\L 8.bb-	4ryy	.	.
32r	.	.	.	.
(32D/JJk	.	.	.	.
8F/L)	.	.	.	.
.	16ff\Jk 16ddd	.	.	.
8FF/J	16ccc/LL	8ee-\	.	.
.	16aa/JJ)	.	.	.
=75	=75	=75	=75	=75
16BBB-/LL 16BB-	(8.dd^\L 8.bb-	4ryy	.	.
32r	.	.	.	.
(32D/JJk	.	.	.	.
8F/L)	.	.	.	.
.	16ff\Jk 16ddd	.	.	.
8FF/J	16ccc/LL	8ee-\	.	.
.	16aa/JJ)	.	.	.
=76	=76	=76	=76	=76
16BBB-/LL 16BB-	(8.dd^\L 8.bb-	4ryy	.	.
32r	.	.	.	.
(32D/JJk	.	.	.	.
8F/L)	.	.	.	.
.	16ff\Jk 16ddd	.	.	.
8FF/J	16ccc/LL	8ee-\	.	.
.	16aa/JJ)	.	.	.
*	*v	*v	*	*
=77	=77	=77	=77
8BBB-\L 8BB-	8dd\L 8bb-	.	.
8BB-\ 8B-	8dd\ 8bb-	.	.
8FF\J 8F	8dd\J 8bb-	.	.
=78	=78	=78	=78
8DD/L 8D	8dd\L 8bb-	.	.
8FF/ 8F	8dd\ 8bb-	.	.
8DD/J 8D	8dd\J 8bb-	.	.
=79	=79	=79	=79
4BBB-/ 4BB-	4dd\ 4bb-	.	.
8r	8r	.	.
=80	=80	=80	=80
4BB-\ 4F 4B-	4d/ 4b-	.	.
8r	8r	.	.
=81	=81	=81	=81
4.BBB-/ 4.BB-	4.B-/ 4.d 4.f 4.b-	.	.
==	==	==	==
*-	*-	*-	*-
!!!system-decoration: {(s1,s2)}
!!!ENC: Berenika Jozajtis
!!!END: 2022-11-26
!!!ENC: Natalia Wrzos
!!!END: 2022-12-06
!!!YEC: Copyright 2022 Narodowy Instytut Fryderyka Chopina (https://polishscores.org)
!!!YEM: License CC-BY-4.0 (https://creativecommons.org/licenses/by/4.0)
